icons/monitor-triangle.svg

<svg width="24" height="24" viewBox="0 0 24 24" fill="none" xmlns="http://www.w3.org/2000/svg">
<path fill-rule="evenodd" clip-rule="evenodd" d="M3.75 7.34998C3.75 5.56419 5.21421 4.09998 7 4.09998H17C18.7858 4.09998 20.25 5.56419 20.25 7.34998V13.35C20.25 15.1358 18.7858 16.6 17 16.6C16.5858 16.6 16.25 16.9358 16.25 17.35C16.25 17.7642 16.5858 18.1 17 18.1C19.6142 18.1 21.75 15.9642 21.75 13.35V7.34998C21.75 4.73576 19.6142 2.59998 17 2.59998H7C4.38579 2.59998 2.25 4.73576 2.25 7.34998V13.35C2.25 15.9642 4.38579 18.1 7 18.1C7.41421 18.1 7.75 17.7642 7.75 17.35C7.75 16.9358 7.41421 16.6 7 16.6C5.21421 16.6 3.75 15.1358 3.75 13.35V7.34998ZM11.9375 15.15C12.5076 15.15 12.9939 15.4804 13.2588 15.9909L15.0463 19.0695C15.3573 19.5926 15.2844 20.1851 15.0366 20.6132C14.7869 21.0444 14.3087 21.4 13.7 21.4H10.1C9.49126 21.4 9.01306 21.0444 8.76343 20.6132C8.51558 20.1851 8.4427 19.5926 8.75366 19.0695L10.5631 15.9533L10.576 15.9339C10.8866 15.4681 11.3769 15.15 11.9375 15.15ZM10.0486 19.8266L11.8345 16.7508C11.8679 16.704 11.8978 16.6779 11.9175 16.6642C11.9211 16.6701 11.925 16.6771 11.9292 16.6854L11.9397 16.7063L13.7516 19.827C13.7505 19.834 13.7472 19.8466 13.7384 19.8617C13.7274 19.8807 13.7144 19.8922 13.7064 19.8973C13.7034 19.8992 13.7018 19.8998 13.7009 19.9C13.7004 19.9001 13.7001 19.9 13.7 19.9L10.0999 19.9C10.0995 19.9001 10.0985 19.9004 10.0936 19.8973C10.0856 19.8922 10.0726 19.8807 10.0616 19.8617C10.0528 19.8465 10.0497 19.8336 10.0486 19.8266Z" fill="black"/>
</svg>

<svg xmlns="http://www.w3.org/2000/svg" fill="none" viewBox="0 0 24 24">
  <path fill="#000" fill-rule="evenodd" d="M3.75 7.35A3.262 3.262 0 0 1 7 4.1h10a3.262 3.262 0 0 1 3.25 3.25v6A3.262 3.262 0 0 1 17 16.6a.75.75 0 0 0 0 1.5 4.762 4.762 0 0 0 4.75-4.75v-6A4.762 4.762 0 0 0 17 2.6H7a4.762 4.762 0 0 0-4.75 4.75v6A4.762 4.762 0 0 0 7 18.1a.75.75 0 0 0 0-1.5 3.262 3.262 0 0 1-3.25-3.25v-6Zm8.188 7.8c.57 0 1.056.33 1.32.84l1.788 3.08c.311.523.238 1.115-.01 1.543a1.55 1.55 0 0 1-1.336.787h-3.6a1.55 1.55 0 0 1-1.337-.787c-.247-.428-.32-1.02-.01-1.543l1.81-3.117.013-.02c.31-.465.8-.783 1.361-.783Zm-1.89 4.677 1.787-3.076a.355.355 0 0 1 .082-.087.307.307 0 0 1 .012.021l.01.021 1.813 3.121a.103.103 0 0 1-.014.035.106.106 0 0 1-.032.035.019.019 0 0 1-.005.003H10.1l-.006-.003a.106.106 0 0 1-.032-.035.103.103 0 0 1-.013-.035Z" clip-rule="evenodd"/>
</svg>
